static/img/common/ico-star.svg

<svg width="21" height="22" viewBox="0 0 21 22" fill="none" xmlns="http://www.w3.org/2000/svg">
<path d="M17.72 1H3.12C1.67301 1 0.5 2.17301 0.5 3.62V18.22C0.5 19.667 1.67301 20.84 3.12 20.84H17.72C19.167 20.84 20.34 19.667 20.34 18.22V3.62C20.34 2.17301 19.167 1 17.72 1Z" fill="white" stroke="#231815" stroke-miterlimit="2"/>
<path d="M15.08 7.35996L11.23 9.57996V4.70996H9.7V9.57996L5.76 7.29996L5 8.62996L8.93 10.9L5 13.18L5.76 14.5L9.7 12.23V17.13H11.23V12.23L15.08 14.45L15.85 13.13L12 10.9L15.85 8.67996L15.08 7.35996Z" fill="#231815"/>
</svg>

<svg xmlns="http://www.w3.org/2000/svg" width="21" height="22" fill="none" viewBox="0 0 21 22"><path fill="#fff" stroke="#231815" stroke-miterlimit="2" d="M17.72 1H3.12A2.62 2.62 0 0 0 .5 3.62v14.6a2.62 2.62 0 0 0 2.62 2.62h14.6a2.62 2.62 0 0 0 2.62-2.62V3.62A2.62 2.62 0 0 0 17.72 1Z"/><path fill="#231815" d="m15.08 7.36-3.85 2.22V4.71H9.7v4.87L5.76 7.3 5 8.63l3.93 2.27L5 13.18l.76 1.32 3.94-2.27v4.9h1.53v-4.9l3.85 2.22.77-1.32L12 10.9l3.85-2.22z"/></svg>
